X:133
T:Ne
R:
C:Bruce Osborne - Dec. 2002
Z:abc by bosborne@kos.net
M:3/4
L:1/8
K:Gmaj
DC|B,2 D2 GA|BA G2 Bc|dB Gd BG|F4 AB|\
cA FA DF|AF DF Ac|d^c de d=c|B4 DC|\
B,2 D2 GA|BA G2 Bc|dB Gd BG|F4 AB|\
cA FA DF|AF DF Ac|d^c d=c AF|G4||\
dc|B2 G2 Bd|B2 G2 Bc|dB GB dg|f4 AB|\
cA FA DF|AF DF AB|cB cd ed|B4 dc|\
B2 G2 Bd|B2 G2 Bc|dB GB dg|f4 AB|\
cA FA DF|AF DF AB|cB cA FA|G4||
